!!!OTL: DES MORGENS ZWISCHEN DREIN UND VIEREN
!!!ARE: Europa, Mitteleuropa, Deutschland, Hessen, Ober- Lahn- und Dillkreis
!!!SCT: E1339
!!!YEM: Copyright 1995, estate of Helmut Schaffrath.
**kern
*ICvox
*Ivox
*M4/4
*k[f#c#]
*D:
{4D
=1
4A
4A
8A
8A
8A
8A
=2
4d
4A
4r}
{4A
=3
8B
8B
8B
8B
4d
8c#
8B
=4
4B
4A
4r}
{4d
=5
4c#
4E
4G
4B
=6
4A
8D
16D
16D
4D}
{4A
=7
4A
4G
4E
4G
=8
4F#
8D
16D
16D
4D}
{4A
=9
4d
4f#
4f#
4e
=10
2.d}
{8c#
8B
=11
4.A
8A
8c#
8B
8A
8G
=12
4F#
8D
16D
16D
4D}
{8.F#
16G
=13
2.A
8.B
16c#
=14
2.d}
{8.e
16d
=15
4c#
4c#
4c#
8.d
16B
=16
2A
4r}
{8.F#
16G
=17
2.A
8.B
16c#
=18
2.d}
{4d
=19
4e
4e
4B
4c#
=20
2d
4r}
==
!!!AGN: Staende -, Soldaten -, Kriegs - Lied
!!!ONB: ESAC (Essen Associative Code) Database: ERK3
!!!AMT: simple quadruple
!!!AIN: vox
!!!EED: Helmut Schaffrath
!!!EEV: 1.0
*-
